src/assets/duotone/ConvertCard.svg

<?xml version="1.0" encoding="UTF-8"?>
<svg width="24" height="24" viewBox="0 0 24 24" xmlns="http://www.w3.org/2000/svg">
 <path d="m22 14.25c0.4142 0 0.75 0.3358 0.75 0.75 0 4.2842-3.4658 7.75-7.75 7.75-0.2702 0-0.5195-0.1453-0.6526-0.3805-0.1332-0.2351-0.1295-0.5237 0.0095-0.7554l1.05-1.75c0.2131-0.3552 0.6738-0.4703 1.029-0.2572 0.3551 0.2131 0.4703 0.6738 0.2572 1.029l-0.2713 0.4522c2.7691-0.6425 4.8282-3.1215 4.8282-6.0881 0-0.4142 0.3358-0.75 0.75-0.75z" clip-rule="evenodd" fill-rule="evenodd" opacity=".4"/>
 <path d="m7.5782 2.9119c-2.7691 0.64242-4.8282 3.1215-4.8282 6.0881 0 0.41421-0.33579 0.75-0.75 0.75s-0.75-0.33579-0.75-0.75c0-4.2842 3.4658-7.75 7.75-7.75 0.2702 0 0.51952 0.14534 0.65265 0.38047s0.12949 0.5237-0.00953 0.7554l-1.05 1.75c-0.21311 0.35518-0.6738 0.47036-1.029 0.25725-0.35518-0.21311-0.47036-0.6738-0.25725-1.029l0.27132-0.45219z" clip-rule="evenodd" fill-rule="evenodd" opacity=".4"/>
 <path d="m12 15.7v0.61h-10v-0.61c0-1.76 0.44-2.2 2.22-2.2h5.56c1.78 0 2.22 0.44 2.22 2.2z" opacity=".4"/>
 <path d="m2 16.31v3.49c0 1.76 0.44 2.2 2.22 2.2h5.56c1.78 0 2.22-0.44 2.22-2.2v-3.49h-10z"/>
 <path d="M22 4.2V4.81H12V4.2C12 2.44 12.44 2 14.22 2H19.78C21.56 2 22 2.44 22 4.2Z" opacity=".4"/>
 <path d="m12 4.81v3.49c0 1.76 0.44 2.2 2.22 2.2h5.56c1.78 0 2.22-0.44 2.22-2.2v-3.49h-10z"/>
</svg>

<svg width="24" height="24" viewBox="0 0 24 24"  xmlns="http://www.w3.org/2000/svg">
<path opacity="0.4" fill-rule="evenodd" clip-rule="evenodd" d="M22 14.25C22.4142 14.25 22.75 14.5858 22.75 15C22.75 19.2842 19.2842 22.75 15 22.75C14.7298 22.75 14.4805 22.6047 14.3474 22.3695C14.2142 22.1344 14.2179 21.8458 14.3569 21.6141L15.4069 19.8641C15.62 19.5089 16.0807 19.3938 16.4359 19.6069C16.791 19.82 16.9062 20.2807 16.6931 20.6359L16.4218 21.0881C19.1909 20.4456 21.25 17.9666 21.25 15C21.25 14.5858 21.5858 14.25 22 14.25Z" />
<path opacity="0.4" fill-rule="evenodd" clip-rule="evenodd" d="M7.57821 2.91194C4.8091 3.55436 2.75 6.03342 2.75 9C2.75 9.41421 2.41421 9.75 2 9.75C1.58579 9.75 1.25 9.41421 1.25 9C1.25 4.71579 4.71579 1.25 9 1.25C9.2702 1.25 9.51952 1.39534 9.65265 1.63047C9.78578 1.8656 9.78214 2.15417 9.64312 2.38587L8.59313 4.13587C8.38002 4.49105 7.91933 4.60623 7.56414 4.39312C7.20896 4.18001 7.09378 3.71932 7.30689 3.36413L7.57821 2.91194Z" />
<path opacity="0.4" d="M12 15.7V16.31H2V15.7C2 13.94 2.44 13.5 4.22 13.5H9.78C11.56 13.5 12 13.94 12 15.7Z" />
<path d="M2 16.31V17.81V19.8C2 21.56 2.44 22 4.22 22H9.78C11.56 22 12 21.56 12 19.8V17.81V16.31H2Z" />
<path opacity="0.4" d="M22 4.2V4.81H12V4.2C12 2.44 12.44 2 14.22 2H19.78C21.56 2 22 2.44 22 4.2Z" />
<path d="M12 4.81V6.31V8.3C12 10.06 12.44 10.5 14.22 10.5H19.78C21.56 10.5 22 10.06 22 8.3V6.31V4.81H12Z" />
</svg>
